X:148
T:Hommage à Edmond Parizeau
C:Marcel Messervier
Z:robin.beech@mcgill.ca
S:NESI 2011
M:4/4
L:1/8
K:A
A ABcd | eAAe AAeA | AAeA f2ed | ceAB cAeA |
ceAc dedc | B3B BABc |1 B3e efed | c2B2 AcBA | E3 :|2
e2d2 c2B2 | Afed cdBc | A2c2 B2A2 |:
a4 f4 | d3A d2f2 | e3e efec | A2c2B2A2 | B2BB BABc |
e2d2 c2B2 |1 cBAc ecef | e2c2 B2A2 :|2 Afed cABc | A3 |]
